X:1
T:Victory
T:Barney Elliott Warren (1867-1951)
T:Victory
T:Public Domain
T:Public Domain
T:Public Domain
C:Barney Elliott Warren (1867-1951)
Z:Public Domain
%%score ( 1 2 ) ( 3 4 )
L:1/8
M:4/4
K:Ab
V:1 treble 
V:2 treble 
V:3 bass 
V:4 bass 
V:1
 [CE]>[CA] | [Ec]>[Ec] [Fd]>[Fd] [Ec]2 [EB]>[EA] | [DF]>[EG] [FA]>[DF] [CE]2 [CE]>[CA] | %3
w: 1.~Hal- le-|lu- jah, what a thought! Je- sus|full sal- va- tion brought, Vic- to-|
w: 2.~I am|trust- ing in the Lord, I am|stand- ing on His Word, Vic- to-|
w: 3.~Shout your|free- dom ev- ’ry- where, His e-|ter- nal peace de- clare, Vic- to-|
w: 4.~We will|sing it on that shore, When this|fleet- ing life is o’er, Vic- to-|
 [DG]6 [DE]>[DB] | [CA]6 [CE]>[CA] | [Ec]>[Ec] [Fd]>[Fd] [Ec]2 | [EB]>[EA] | %7
w: ry, vic- to-|ry. Let the|pow’rs of sin as- sail,|Heav- en’s|
w: ry, vic- to-|ry. I have|peace and joy with- in,|Since my|
w: ry, vic- to-|ry. Let us|sing it here be- low,|In the|
w: ry, vic- to-|ry. Sing it|here, ye ran- somed throng,|Start the|
 [DF]>[EG] [FA]>[DF] [CE]2 [CE]>[CA] | [DG]6 [DE]>[DB] | [CA]6 ||"^Refrain" [ce]>[Bd] | %11
w: grace can nev- er fail, Vic- to-|ry, vic- to-|ry.||
w: life is free from sin, Vic- to-|ry, vic- to-|ry.|Vic- to-|
w: face of ev- ’ry foe, Vic- to-|ry, vic- to-|ry.||
w: ev- er- last- ing song: Vic- to-|ry, vic- to-|ry.||
 [Ac]4- [Ac]>[EB] [CA]>[DF] | [CE]6 [Bd]>[Ac] | [GB]>[Ac] [Bd]>[=Ac] [Bd]2 [ce]>[Bd] | %14
w: |||
w: ry, * yes, vic- to-|ry. Hal- le-|lu- jah! I am free, Je- sus|
w: |||
w: |||
 [Ac]>[Bd] [ce]>[=B=d] [ce]2 [CE]>[CA] | [Ec]4- [Ec]>[Fd] [DF]>[DA] | [CE]4 [EA]2 [Ac]>[Ee] | %17
w: |||
w: gives me vic- to- ry. Glo- ry,|glo- * ry, hal- le-|lu- jah! He is|
w: |||
w: |||
 [CE]4- [CE]>[EB] [EA]>[EG] | E2 F>F [EA]2 |] %19
w: ||
w: all * in all to|me. * * *|
w: ||
w: ||
V:2
 x2 | x8 | x8 | x8 | x8 | x6 | x2 | x8 | x8 | x6 || x2 | x8 | x8 | x8 | x8 | x8 | x8 | x8 | %18
 A4- x2 |] %19
V:3
 [A,,A,]>[A,,A,] | [A,,A,]>[A,,A,] [A,,A,]>[A,,A,] [A,,A,]2 [B,,G,]>[C,A,] | %2
w: ~ ~|~ ~ ~ ~ ~ ~ ~|
 [D,A,]>[D,A,] [D,A,]>[D,A,] [A,,A,]2 z2 | z2 [E,B,]>[E,B,] [E,B,]2 z2 | %4
w: ~ ~ ~ ~ ~|~ ~ ~|
 z2 [A,,A,]>[A,,E,] [A,,E,]2 [A,,A,]>[A,,A,] | [A,,A,]>[A,,A,] [A,,A,]>[A,,A,] [A,,A,]2 | %6
w: ~ ~ ~ ~ ~|~ ~ ~ ~ ~|
 [B,,G,]>[C,A,] | [D,A,]>[D,A,] [D,A,]>[D,A,] [A,,A,]2 z2 | z2 [E,B,]>[E,B,] [E,B,]2 z2 | %9
w: ~ ~|~ ~ ~ ~ ~|~ ~ ~|
 z2 [A,,A,]>[A,,E,] [A,,E,]2 || z2 | z2 [A,E]>[A,E] [A,E]2 z2 | %12
w: ~ ~ ~||Vic- to- ry,|
 z3/2 [A,,A,]/ [A,,A,]>[A,,A,] [A,,A,]2 [E,E]>[E,C] | [E,E]>[E,E] [E,E]>[E,E] [E,E]2 [E,E]>[E,E] | %14
w: yes, vic- to- ry; ~ ~|~ ~ ~ ~ ~ ~ ~|
 [A,E]>[A,E] [A,E]>[A,E] [A,E]2 z2 | z2 [A,,A,]>[A,,A,] [A,,A,]>[A,,A,] z2 | %16
w: ~ ~ ~ ~ ~|Glo- ry, glo- ry,|
 z2 [A,,A,]>[A,,A,] [A,C]>[A,C] [A,E]>[A,C] | [E,A,]2 [E,A,]>[E,A,] [E,A,]>[E,D] [E,C]>[E,B,] | %18
w: hal- le- lu- jah! He is|all, He is all in all, to|
 C2 D>D [A,,C]2 |] %19
w: me (all to~me). *|
V:4
 x2 | x8 | x8 | x8 | x8 | x6 | x2 | x8 | x8 | x6 || x2 | x8 | x8 | x8 | x8 | x8 | x8 | x8 | %18
 A,,4- x2 |] %19

